X:134
T:Hornpipe TS.134
M:2/4
L:1/16
Q:1/4=96
S:Thomas Sands’ MS,1810,Lincolnshire
R:.hornpipe
O:England;Lincolnshire
Z:vmp.Ruairidh Greig, 2011
K:Bb
F2|Bcde fgab|fdec BAGF|GBeg fdec|B2cB A2F2|
Bcde fgab|gecg f2F2|Ggfe dcBA|B2B2B2:|
|:de|fdge fdBd|fdge f2ba|gfed edcB|A2c2c2 de|
fdge fdBd|cdec BAGF|Bdfd gecA|B2B2B2:|]

